dist/img/sprites/hCatalogs.svg

<svg width="32" height="32" viewBox="0 0 32 32" fill="none" xmlns="http://www.w3.org/2000/svg">
<path d="M27.2001 16.13C26.5301 16.13 25.8701 16.13 25.2101 16.13C23.7501 16.13 22.2401 16.13 20.7601 16.11C20.7301 16.11 20.7001 16.11 20.6701 16.11C19.7301 16.11 19.5201 16.4 19.4601 16.89V17.28L10.4401 17.24V12.81L19.4601 12.85V13.16C19.4801 13.83 19.7301 14.07 20.4201 14.07C22.6701 14.07 24.9201 14.07 27.1701 14.07C27.8801 14.07 28.1501 13.8 28.1501 13.09C28.1501 11.44 28.1501 9.8 28.1501 8.16C28.1501 7.42 27.8901 7.16 27.1501 7.16C26.4901 7.16 25.8401 7.16 25.1801 7.16C23.7101 7.16 22.2001 7.17 20.7101 7.15C19.8301 7.13 19.5101 7.34 19.4501 7.93V8.46L10.4301 8.42V6.91H10.4901C10.8701 6.91 11.2301 6.91 11.6001 6.91C12.2301 6.91 12.5101 6.63 12.5101 6.01C12.5101 4.31 12.5101 2.6 12.5101 0.9C12.5101 0.27 12.2401 0 11.6001 0C9.33008 0 7.03008 0 4.73008 0C4.11008 0 3.83008 0.28 3.83008 0.91C3.83008 2.6 3.83008 4.29 3.83008 5.98C3.83008 6.61 4.12008 6.9 4.77008 6.9C5.14008 6.9 5.51008 6.9 5.90008 6.9H5.97008V26.95C5.97008 29.07 7.70008 30.8 9.82008 30.81L19.4901 30.85V31.2C19.5101 31.55 19.6601 31.98 20.2901 31.99C22.6101 31.99 24.9901 31.99 27.3601 31.99C27.8801 31.99 28.1801 31.71 28.1801 31.21C28.2001 29.43 28.2001 27.63 28.1801 25.86C28.1801 25.37 27.8701 25.08 27.3601 25.08C26.1601 25.08 24.9501 25.08 23.7501 25.08C22.5501 25.08 21.4701 25.08 20.3201 25.08C19.8101 25.08 19.5201 25.36 19.4901 25.88V26.4L10.4701 26.36V21.68L19.4901 21.72V22.15C19.5101 22.78 19.7801 23.02 20.4201 23.03C22.6901 23.03 24.9701 23.03 27.2401 23.03C27.9101 23.03 28.1801 22.75 28.1801 22.08C28.1801 20.41 28.1801 18.74 28.1801 17.08C28.1801 16.4 27.9001 16.12 27.2101 16.12L27.2001 16.13ZM21.0101 8.73H26.6001V12.52H21.0101V8.73ZM21.0101 26.66H26.5901V30.45H21.0101V26.66ZM5.39008 5.35V1.55H10.9801V5.34H5.39008V5.35ZM19.3501 20.12L10.3101 20.08C9.92008 20.08 9.55008 20.23 9.27008 20.51C8.99008 20.79 8.84008 21.16 8.84008 21.55V26.51C8.84008 27.32 9.50008 27.97 10.3001 27.98L19.3501 28.02V29.25L9.81008 29.22C8.58008 29.22 7.57008 28.21 7.57008 26.97V6.96H8.84008V8.57C8.84008 9.38 9.50008 10.03 10.3001 10.04L19.3501 10.08V11.25L10.3101 11.21C9.92008 11.21 9.55008 11.36 9.28008 11.64C9.00008 11.92 8.85008 12.29 8.85008 12.68V17.39C8.85008 18.2 9.51008 18.85 10.3101 18.86L19.3601 18.9V20.12H19.3501ZM26.6001 21.48H21.0201V17.7H26.6001V21.48Z" fill="#4B8125"/>
</svg>

<svg width="32" height="32" viewBox="0 0 32 32" fill="none" xmlns="http://www.w3.org/2000/svg"><path d="M27.2 16.13h-1.99c-1.46 0-2.97 0-4.45-.02h-.09c-.94 0-1.15.29-1.21.78v.39l-9.02-.04v-4.43l9.02.04v.31c.02.67.27.91.96.91h6.75c.71 0 .98-.27.98-.98V8.16c0-.74-.26-1-1-1h-1.97c-1.47 0-2.98.01-4.47-.01-.88-.02-1.2.19-1.26.78v.53l-9.02-.04V6.91h1.17c.63 0 .91-.28.91-.9V.9c0-.63-.27-.9-.91-.9H4.73c-.62 0-.9.28-.9.91v5.07c0 .63.29.92.94.92h1.2v20.05c0 2.12 1.73 3.85 3.85 3.86l9.67.04v.35c.02.35.17.78.8.79h7.07c.52 0 .82-.28.82-.78.02-1.78.02-3.58 0-5.35 0-.49-.31-.78-.82-.78h-7.04c-.51 0-.8.28-.83.8v.52l-9.02-.04v-4.68l9.02.04v.43c.02.63.29.87.93.88h6.82c.67 0 .94-.28.94-.95v-5c0-.68-.28-.96-.97-.96l-.01.01zm-6.19-7.4h5.59v3.79h-5.59V8.73zm0 17.93h5.58v3.79h-5.58v-3.79zM5.39 5.35v-3.8h5.59v3.79H5.39v.01zm13.96 14.77l-9.04-.04c-.39 0-.76.15-1.04.43s-.43.65-.43 1.04v4.96c0 .81.66 1.46 1.46 1.47l9.05.04v1.23l-9.54-.03c-1.23 0-2.24-1.01-2.24-2.25V6.96h1.27v1.61c0 .81.66 1.46 1.46 1.47l9.05.04v1.17l-9.04-.04c-.39 0-.76.15-1.03.43-.28.28-.43.65-.43 1.04v4.71c0 .81.66 1.46 1.46 1.47l9.05.04v1.22h-.01zm7.25 1.36h-5.58V17.7h5.58v3.78z" fill="#4B8125"/></svg>
